assets/Person surfing/Medium-Light/Flat/person_surfing_flat_medium-light.svg

<svg width="32" height="32" viewBox="0 0 32 32" fill="none" xmlns="http://www.w3.org/2000/svg">
<path d="M27.67 10.91C27.67 11.385 27.2849 11.77 26.8099 11.77C26.335 11.77 25.95 11.385 25.95 10.91C25.95 10.435 26.335 10.05 26.8099 10.05C27.2849 10.05 27.67 10.435 27.67 10.91Z" fill="#26C9FC"/>
<path d="M29.8101 12.99C29.8101 13.5312 29.3713 13.97 28.8301 13.97C28.2889 13.97 27.8501 13.5312 27.8501 12.99C27.8501 12.4488 28.2889 12.01 28.8301 12.01C29.3713 12.01 29.8101 12.4488 29.8101 12.99Z" fill="#26C9FC"/>
<path d="M29.3439 24.5687C28.0459 27.7023 24.5312 30 21.35 30H4.92188C4.92188 30 19.39 25.42 22.9 18.9C24.7 15.56 30 16.86 30 21.26C30.0013 22.3954 29.7784 23.5198 29.3439 24.5687Z" fill="#26C9FC"/>
<path d="M25.8201 16.18C26.5104 16.18 27.0701 15.6203 27.0701 14.93C27.0701 14.2396 26.5104 13.68 25.8201 13.68C25.1297 13.68 24.5701 14.2396 24.5701 14.93C24.5701 15.6203 25.1297 16.18 25.8201 16.18Z" fill="#26C9FC"/>
<path d="M7.92191 12.9531C10.7422 12.5547 12.1172 10.6953 12.9063 8.80469C13.9688 8.80469 13.7031 11.7422 12.9297 12.5547C12.3738 13.1387 10.6096 14.6566 8.18045 14.9589C7.49996 14.5 7.49998 13.5 7.92191 12.9531Z" fill="#F24827"/>
<path d="M17.8984 10.0078C19.2862 9.96093 20.125 10.4609 20.5234 11.0859C20.6993 11.3618 21.1016 12.0898 20.9141 13.0938C20.9141 13.0938 20.668 13.0312 20.5352 13.1328C20.4023 13.2344 20.2148 13.6406 20.2734 13.8906C20.332 14.1406 20.5703 14.0664 20.5703 14.1406C20.5703 14.2148 20.3553 14.551 20.5703 14.7031C20.7853 14.8552 20.8281 14.7852 20.9531 14.8359C21.0781 14.8867 21.0898 14.9844 21.2344 15.0156C21.3789 15.0469 21.4336 14.9844 21.5469 15.0156C21.6602 15.0469 21.6875 15.1289 21.8516 15.1328C22.0156 15.1367 22.0273 15.1055 22.1523 15.1055C22.2773 15.1055 22.2109 15.1797 22.4922 15.1797C22.7734 15.1797 22.9031 14.7713 22.9753 14.2356C23.0312 13.8212 23.0312 13.4862 23.0312 13.2951C23.0312 12.8567 23.1404 12.7375 23.0312 12C22.4989 8.40435 19.5639 7.79001 16.8201 7.79001C16.8201 7.79001 15.2401 7.71001 14.4601 7.79001C14.2043 7.81464 13.9561 7.8912 13.7309 8.015C13.5056 8.13879 13.308 8.30723 13.1501 8.51001C12.1946 10.2449 12.7545 12.304 13.3501 14.07C13.4447 14.3076 13.3524 14.5593 13.2578 14.7969L7.09375 27.8438L10.1172 26.7734L10.2109 25.7188L15.3438 18.0781C15.5938 17.7281 16.059 17.8622 16.1562 18.125C16.7711 19.7864 18.4219 22.0547 19.8828 23.3438L21.6719 22.7188C20.7244 21.2726 18.9101 18.9219 18.9101 16.93V15.48C18.9101 13.8856 18.1125 12.3393 17.5801 10.87C17.4901 10.51 17.2284 10.0978 17.8984 10.0078Z" fill="#FF6723"/>
<path d="M20.9141 13.0938C20.948 12.9126 20.9628 12.5782 20.9628 12.5782L23.0768 12.689C23.0768 12.689 23.0313 13.0476 23.0313 13.2951C23.0313 13.4862 23.0313 13.8212 22.9754 14.2357C22.9031 14.7713 22.7735 15.1797 22.4922 15.1797C22.3235 15.1797 22.2799 15.153 22.245 15.1316C22.2218 15.1174 22.2024 15.1055 22.1524 15.1055C22.096 15.1055 22.0626 15.1118 22.0279 15.1185C21.9858 15.1265 21.9416 15.135 21.8516 15.1328C21.7515 15.1304 21.7023 15.099 21.6534 15.0677C21.6222 15.0477 21.5911 15.0278 21.5469 15.0156C21.4917 15.0004 21.4504 15.0074 21.4058 15.015C21.359 15.023 21.3085 15.0316 21.2344 15.0156C21.1542 14.9983 21.1149 14.9605 21.0745 14.9217C21.042 14.8905 21.0088 14.8586 20.9532 14.8359C20.9089 14.818 20.8749 14.8151 20.84 14.8122C20.7762 14.8069 20.7092 14.8013 20.5704 14.7031C20.4076 14.588 20.4912 14.3674 20.5415 14.2348C20.5577 14.1922 20.5704 14.1587 20.5704 14.1406C20.5704 14.114 20.5396 14.1065 20.4974 14.0962C20.4223 14.0779 20.311 14.0508 20.2735 13.8906C20.2149 13.6406 20.4024 13.2344 20.5352 13.1328C20.668 13.0313 20.9141 13.0938 20.9141 13.0938Z" fill="#EEBFAA"/>
<path d="M6.91744 12.8958C6.67846 12.8653 6.44806 12.8359 6.24222 12.8359C5.65625 12.8359 5.20326 13.1485 5.00004 13.4219C4.94041 13.5021 4.97651 13.6289 4.97651 13.6289C4.83198 13.6979 4.56792 13.9258 4.66792 14.2852C4.66223 14.2633 4.34776 14.5859 4.53135 14.875C4.6406 15.0312 4.78253 15.0469 4.83984 15.0352C4.83984 15.0352 4.84694 15.1414 5.00004 15.2695C5.08206 15.3307 5.34062 15.3461 5.48438 15.1992C5.51365 15.1693 5.54199 15.1365 5.5713 15.1026C5.72194 14.9282 5.89832 14.7239 6.35938 14.7305C6.17578 14.875 5.82031 15.1992 6.10156 15.5352C6.24222 15.7032 6.56719 15.6914 6.78906 15.5039L7.33203 15.0117C7.53997 15.0117 7.75076 14.9939 7.94961 14.9771C8.03004 14.9703 8.10871 14.9637 8.18426 14.9584C7.92191 14.3984 7.76953 13.4023 7.92191 12.9531C7.59915 12.9827 7.24998 12.9382 6.91744 12.8958Z" fill="#EEBFAA"/>
<path d="M19.8829 23.3437C19.5634 23.0619 18.9102 22.3743 18.9102 22.3743L20.8585 21.511C20.8585 21.511 21.4397 22.3643 21.6719 22.7187L19.8829 23.3437Z" fill="#EEBFAA"/>
<path d="M8.35921 25.1653L7.09375 27.8438L10.1172 26.7734L10.2109 25.7188L8.35921 25.1653Z" fill="#EEBFAA"/>
<path d="M23.0707 24.5469L25.5 23.71C25.7994 23.6009 26.0463 23.3824 26.1911 23.0985C26.3358 22.8146 26.3676 22.4864 26.28 22.18C26.2272 22.0231 26.1436 21.8782 26.0343 21.7538C25.925 21.6294 25.792 21.528 25.6432 21.4554C25.4943 21.3828 25.3325 21.3405 25.1672 21.331C25.0018 21.3215 24.8362 21.345 24.68 21.4L2.20003 29.14C2.09881 29.1715 2.01237 29.2386 1.95662 29.3287C1.90087 29.4189 1.87955 29.5262 1.89659 29.6308C1.91362 29.7354 1.96786 29.8304 2.04934 29.8982C2.13081 29.9661 2.23403 30.0022 2.34003 30H5.13003C6.58163 29.9957 8.02202 29.7455 9.39003 29.26L21.188 25.1955L22.92 26.04C22.9855 26.071 23.0586 26.0822 23.1302 26.0721C23.2019 26.0619 23.2691 26.031 23.3234 25.9831C23.3777 25.9352 23.4167 25.8724 23.4357 25.8025C23.4546 25.7327 23.4527 25.6588 23.43 25.59L23.0707 24.5469Z" fill="#D73B9A"/>
<path d="M16.1299 3.42998C16.3638 3.51005 16.5597 3.67393 16.6799 3.88998C16.7795 4.05603 16.8287 4.24742 16.8216 4.44091C16.8145 4.6344 16.7514 4.82167 16.6399 4.97998C16.5711 5.09417 16.5396 5.22703 16.5499 5.35998V5.57998C16.4727 5.52197 16.3051 5.47107 16.2109 5.44998C16.2109 5.36603 16.2213 5.28499 16.2314 5.20649C16.2579 4.99891 16.2822 4.80911 16.1064 4.63043C15.9933 4.51548 15.841 4.44746 15.6799 4.43998H15.0699C14.8609 4.44565 14.6548 4.38995 14.477 4.27977C14.2993 4.16958 14.1578 4.00973 14.0699 3.81998C14.0496 3.7646 14.0128 3.71675 13.9646 3.6828C13.9163 3.64885 13.8589 3.63043 13.7999 3.62998H13.2499C12.86 3.62998 12.4861 3.78485 12.2105 4.06053C11.9348 4.33621 11.7799 4.71011 11.7799 5.09998V5.44998C11.6707 5.46787 11.5676 5.51253 11.4799 5.57998V5.35998C11.4814 5.22377 11.4393 5.09064 11.3599 4.97998C11.2514 4.82674 11.1882 4.64606 11.1776 4.4586C11.167 4.27113 11.2094 4.08447 11.2999 3.91998C11.419 3.68873 11.6234 3.51297 11.8699 3.42998C12.1215 3.34811 12.3348 3.1775 12.4699 2.94998C12.5618 2.80294 12.6902 2.68231 12.8428 2.59992C12.9953 2.51752 13.1666 2.47619 13.3399 2.47998C13.4772 2.48049 13.613 2.50766 13.7399 2.55998C13.8222 2.59463 13.9106 2.61248 13.9999 2.61248C14.0892 2.61248 14.1776 2.59463 14.2599 2.55998C14.3868 2.50766 14.5227 2.48049 14.6599 2.47998C14.8351 2.47826 15.0078 2.52262 15.1604 2.60862C15.3131 2.69462 15.4405 2.81923 15.5299 2.96998C15.6693 3.18938 15.8818 3.35235 16.1299 3.42998Z" fill="#FFF9BA"/>
<path d="M15.9531 7.98439C16.1205 7.9118 16.3098 7.80716 16.4094 7.65424C16.5089 7.50132 16.5613 7.32248 16.56 7.14001V6.74001C16.5004 6.78404 16.3769 6.7029 16.2556 6.62325C16.1571 6.5585 16.06 6.49474 16 6.5C16 6.60852 16.0065 6.73716 16.0135 6.87472C16.0328 7.25539 16.0556 7.7044 15.9531 7.98439Z" fill="#FFF9BA"/>
<path d="M12 6.50002C11.9347 6.49624 11.8456 6.56672 11.7569 6.63698C11.6503 6.72136 11.5442 6.80541 11.48 6.76003V7.16003C11.4805 7.34732 11.5369 7.5302 11.642 7.68521C11.7471 7.84022 11.8962 7.9603 12.07 8.03003C11.9889 7.87433 11.938 7.70468 11.92 7.53003L12 6.50002Z" fill="#FFF9BA"/>
<path d="M12.6199 6.18002C12.6199 6.57767 12.2976 6.90002 11.8999 6.90002C11.5023 6.90002 11.1799 6.57767 11.1799 6.18002C11.1799 5.78238 11.5023 5.46002 11.8999 5.46002C12.2976 5.46002 12.6199 5.78238 12.6199 6.18002Z" fill="#E4B29A"/>
<path d="M16.8201 6.18002C16.8201 6.57767 16.4978 6.90002 16.1001 6.90002C15.7025 6.90002 15.3801 6.57767 15.3801 6.18002C15.3801 5.78238 15.7025 5.46002 16.1001 5.46002C16.4978 5.46002 16.8201 5.78238 16.8201 6.18002Z" fill="#E4B29A"/>
<path d="M11.7494 5.45574C11.7595 5.45359 11.7697 5.45168 11.7799 5.45V5.1C11.7799 4.71014 11.9348 4.33624 12.2105 4.06056C12.4861 3.78488 12.86 3.63 13.2499 3.63H13.7999C13.8589 3.63046 13.9163 3.64888 13.9646 3.68283C14.0128 3.71678 14.0496 3.76463 14.0699 3.82C14.1578 4.00976 14.2993 4.16961 14.477 4.2798C14.6548 4.38998 14.8609 4.44568 15.0699 4.44H15.6799C15.841 4.44749 15.9933 4.51551 16.1064 4.63046C16.2822 4.80914 16.2579 4.99893 16.2314 5.20652C16.2213 5.28502 16.2109 5.36606 16.2109 5.45C16.2179 5.45157 16.2254 5.45331 16.2331 5.4552L16.1101 7.53003C16.0524 7.93737 15.8497 8.31024 15.5393 8.58025C15.2289 8.85025 14.8315 8.99929 14.4201 9.00003H13.6001C13.1763 9.00996 12.7642 8.86022 12.4456 8.58052C12.127 8.30082 11.9251 7.91159 11.8801 7.49003L11.7494 5.45574Z" fill="#EEBFAA"/>
<path d="M14.0001 7.51001C13.7814 7.50885 13.5658 7.45753 13.3701 7.36001C13.3101 7.36001 13.2401 7.36001 13.2801 7.46001C13.3594 7.57965 13.4672 7.67779 13.5937 7.74568C13.7202 7.81357 13.8615 7.8491 14.0051 7.8491C14.1486 7.8491 14.29 7.81357 14.4165 7.74568C14.543 7.67779 14.6507 7.57965 14.7301 7.46001C14.7301 7.40001 14.7301 7.32001 14.6401 7.36001C14.4408 7.45768 14.222 7.50896 14.0001 7.51001V7.51001Z" fill="#990838"/>
<path d="M13.8399 6.05998L13.6099 6.78998C13.601 6.82579 13.6002 6.86313 13.6074 6.89931C13.6146 6.93549 13.6298 6.96963 13.6518 6.99926C13.6738 7.0289 13.702 7.05329 13.7346 7.07071C13.7671 7.08812 13.8031 7.09812 13.8399 7.09998H14.1699C14.2066 7.09853 14.2425 7.08867 14.2748 7.07118C14.307 7.05368 14.3349 7.02901 14.3561 6.99907C14.3774 6.96912 14.3915 6.9347 14.3973 6.89845C14.4032 6.8622 14.4007 6.8251 14.3899 6.78998L14.1699 6.05998C14.1608 6.02313 14.1396 5.9904 14.1097 5.96701C14.0798 5.94362 14.0429 5.93091 14.0049 5.93091C13.967 5.93091 13.9301 5.94362 13.9002 5.96701C13.8703 5.9904 13.8491 6.02313 13.8399 6.05998V6.05998Z" fill="#D19479"/>
<path d="M15.0499 5.58001C15.188 5.58036 15.322 5.62678 15.4307 5.71192C15.5394 5.79706 15.6165 5.91604 15.6499 6.05001C15.6528 6.06786 15.6518 6.08611 15.6472 6.10358C15.6426 6.12106 15.6343 6.13737 15.623 6.15149C15.6117 6.1656 15.5976 6.17721 15.5816 6.18556C15.5656 6.19392 15.548 6.19884 15.5299 6.20001H14.5299C14.5155 6.19875 14.5014 6.19464 14.4885 6.18792C14.4756 6.1812 14.4642 6.17199 14.4549 6.16084C14.4456 6.14968 14.4386 6.13679 14.4344 6.12292C14.4301 6.10905 14.4286 6.09446 14.4299 6.08001C14.4581 5.93712 14.5357 5.8087 14.649 5.71728C14.7624 5.62585 14.9043 5.57726 15.0499 5.58001Z" fill="white"/>
<path d="M13.0001 5.57997C12.862 5.58032 12.728 5.62674 12.6193 5.71188C12.5106 5.79702 12.4335 5.916 12.4001 6.04997C12.3954 6.06801 12.395 6.0869 12.3989 6.10513C12.4028 6.12336 12.4109 6.14043 12.4225 6.15499C12.4342 6.16955 12.4491 6.18119 12.466 6.189C12.4829 6.19681 12.5014 6.20056 12.5201 6.19997H13.5201C13.5345 6.19871 13.5486 6.1946 13.5615 6.18788C13.5744 6.18116 13.5858 6.17195 13.5951 6.1608C13.6044 6.14964 13.6114 6.13676 13.6156 6.12288C13.6199 6.10901 13.6214 6.09442 13.6201 6.07997C13.5901 5.93797 13.5121 5.81066 13.3991 5.71956C13.2861 5.62845 13.1452 5.57915 13.0001 5.57997Z" fill="white"/>
<path d="M12.7707 5.81361C12.8454 5.74075 12.9456 5.69998 13.05 5.70001C13.1455 5.71203 13.2335 5.75808 13.2978 5.82972C13.3621 5.90136 13.3984 5.99377 13.4 6.09001C13.4047 6.12653 13.4047 6.1635 13.4 6.20001H12.65C12.6453 6.1635 12.6453 6.12653 12.65 6.09001C12.6526 5.98567 12.6959 5.88648 12.7707 5.81361Z" fill="#7D4533"/>
<path d="M15.2759 5.81424C15.2028 5.7411 15.1036 5.70001 15.0001 5.70001C14.901 5.70744 14.8082 5.75149 14.7398 5.82359C14.6714 5.89568 14.6323 5.99066 14.6301 6.09001V6.20001H15.3901C15.3951 6.16351 15.3951 6.12651 15.3901 6.09001C15.3901 5.98658 15.349 5.88738 15.2759 5.81424Z" fill="#7D4533"/>
<path d="M12.8201 6.19995C12.8199 6.04687 12.8438 5.88672 13.0313 5.88672C13.2188 5.88672 13.2701 6.05466 13.2701 6.19995H12.8201Z" fill="black"/>
<path d="M14.7869 6.19995C14.7867 6.04687 14.8106 5.88672 14.9981 5.88672C15.1856 5.88672 15.2369 6.05466 15.2369 6.19995H14.7869Z" fill="black"/>
<path d="M12.9801 5.94C12.9801 5.97866 12.9487 6.01 12.9101 6.01C12.8714 6.01 12.8401 5.97866 12.8401 5.94C12.8401 5.90134 12.8714 5.87 12.9101 5.87C12.9487 5.87 12.9801 5.90134 12.9801 5.94Z" fill="white"/>
<path d="M14.91 5.94C14.91 5.97866 14.8787 6.01 14.84 6.01C14.8014 6.01 14.77 5.97866 14.77 5.94C14.77 5.90134 14.8014 5.87 14.84 5.87C14.8787 5.87 14.91 5.90134 14.91 5.94Z" fill="white"/>
<path d="M12.5714 5.28261C12.7588 5.15218 12.9879 5.0957 13.2145 5.12403C13.283 5.1326 13.3455 5.08401 13.354 5.01551C13.3626 4.94701 13.314 4.88453 13.2455 4.87597C12.9577 4.83997 12.6667 4.91172 12.4286 5.07739C12.3719 5.11682 12.358 5.19473 12.3974 5.25139C12.4368 5.30806 12.5147 5.32204 12.5714 5.28261Z" fill="#A56953"/>
<path d="M15.5803 5.07661C15.3417 4.91427 15.0526 4.843 14.7658 4.87577C14.6973 4.88361 14.648 4.94557 14.6558 5.01416C14.6637 5.08275 14.7256 5.132 14.7942 5.12416C15.0215 5.09819 15.2506 5.15467 15.4397 5.28332C15.4968 5.32215 15.5746 5.30735 15.6134 5.25027C15.6522 5.19318 15.6374 5.11543 15.5803 5.07661Z" fill="#A56953"/>
</svg>

<svg xmlns="http://www.w3.org/2000/svg" width="32" height="32" fill="none"><path fill="#26C9FC" d="M27.67 10.91a.86.86 0 1 1-1.72 0 .86.86 0 0 1 1.72 0ZM29.81 12.99a.98.98 0 1 1-1.96 0 .98.98 0 0 1 1.96 0ZM29.344 24.569C28.046 27.702 24.53 30 21.35 30H4.922S19.39 25.42 22.9 18.9c1.8-3.34 7.1-2.04 7.1 2.36a8.62 8.62 0 0 1-.656 3.309ZM25.82 16.18a1.25 1.25 0 1 0 0-2.5 1.25 1.25 0 0 0 0 2.5Z"/><path fill="#F24827" d="M7.922 12.953c2.82-.398 4.195-2.258 4.984-4.148 1.063 0 .797 2.937.024 3.75-.556.584-2.32 2.102-4.75 2.404-.68-.459-.68-1.459-.258-2.006Z"/><path fill="#FF6723" d="M17.898 10.008c1.388-.047 2.227.453 2.625 1.078a2.76 2.76 0 0 1 .391 2.008s-.246-.063-.379.039c-.133.101-.32.508-.262.758.059.25.297.175.297.25 0 .074-.215.41 0 .562.215.152.258.082.383.133.125.05.137.148.281.18.145.03.2-.032.313 0 .113.03.14.113.305.117.164.004.175-.027.3-.027s.059.074.34.074.411-.409.483-.944c.056-.415.056-.75.056-.94 0-.44.11-.558 0-1.296-.532-3.596-3.467-4.21-6.21-4.21 0 0-1.58-.08-2.36 0a1.89 1.89 0 0 0-1.31.72c-.956 1.735-.396 3.794.2 5.56.094.238.001.49-.093.727L7.094 27.844l3.023-1.07.094-1.055 5.133-7.64c.25-.35.715-.217.812.046.615 1.661 2.266 3.93 3.727 5.219l1.789-.625c-.948-1.446-2.762-3.797-2.762-5.789v-1.45c0-1.594-.797-3.14-1.33-4.61-.09-.36-.352-.772.318-.862Z"/><path fill="#EEBFAA" d="M20.914 13.094c.034-.181.049-.516.049-.516l2.114.111s-.046.359-.046.606c0 .191 0 .526-.056.94-.072.536-.202.945-.483.945-.169 0-.212-.027-.247-.048-.023-.015-.043-.027-.093-.027a.578.578 0 0 0-.124.013c-.042.008-.086.017-.176.015a.336.336 0 0 1-.199-.065.37.37 0 0 0-.106-.052.295.295 0 0 0-.141-.001.405.405 0 0 1-.172 0c-.08-.017-.12-.055-.16-.093-.032-.032-.065-.063-.12-.086a.35.35 0 0 0-.114-.024c-.064-.005-.13-.01-.27-.109-.162-.115-.079-.336-.029-.468a.374.374 0 0 0 .03-.094c0-.027-.031-.034-.074-.045-.075-.018-.186-.045-.224-.205-.058-.25.13-.657.262-.758.133-.102.38-.04.38-.04ZM6.917 12.896c-.239-.03-.469-.06-.675-.06-.586 0-1.039.313-1.242.586-.06.08-.023.207-.023.207-.145.069-.41.297-.31.656-.005-.022-.32.3-.136.59.11.156.252.172.309.16 0 0 .007.106.16.235.082.06.34.076.484-.07.03-.03.058-.063.087-.097.15-.175.327-.38.788-.373-.183.145-.539.47-.257.805.14.168.465.156.687-.031l.543-.492c.208 0 .419-.018.618-.035l.234-.019c-.262-.56-.414-1.556-.262-2.005-.323.03-.672-.015-1.005-.057ZM19.883 23.344c-.32-.282-.973-.97-.973-.97l1.948-.863s.582.853.814 1.208l-1.79.625ZM8.36 25.165l-1.266 2.679 3.023-1.07.094-1.055-1.852-.554Z"/><path fill="#D73B9A" d="m23.07 24.547 2.43-.837a1.26 1.26 0 0 0 .78-1.53 1.25 1.25 0 0 0-1.6-.78L2.2 29.14a.44.44 0 0 0 .14.86h2.79a12.85 12.85 0 0 0 4.26-.74l11.798-4.065 1.732.845a.37.37 0 0 0 .51-.45l-.36-1.043Z"/><path fill="#FFF9BA" d="M16.13 3.43a1 1 0 0 1 .55.46 1 1 0 0 1-.04 1.09.64.64 0 0 0-.09.38v.22a1.09 1.09 0 0 0-.34-.13c0-.084.011-.165.021-.244.027-.207.051-.397-.125-.576a.64.64 0 0 0-.426-.19h-.61a1.07 1.07 0 0 1-1-.62.29.29 0 0 0-.27-.19h-.55a1.47 1.47 0 0 0-1.47 1.47v.35a.67.67 0 0 0-.3.13v-.22a.64.64 0 0 0-.12-.38 1 1 0 0 1-.06-1.06 1 1 0 0 1 .57-.49 1.09 1.09 0 0 0 .6-.48 1 1 0 0 1 .87-.47c.137 0 .273.028.4.08a.67.67 0 0 0 .52 0 1.06 1.06 0 0 1 .4-.08 1 1 0 0 1 .87.49c.14.22.352.382.6.46ZM15.953 7.984c.168-.072.357-.177.456-.33a.93.93 0 0 0 .151-.514v-.4c-.06.044-.183-.037-.304-.117-.099-.064-.196-.128-.256-.123 0 .109.006.237.014.375.019.38.042.83-.06 1.11ZM12 6.5c-.065-.004-.154.067-.243.137-.107.084-.213.168-.277.123v.4a.94.94 0 0 0 .59.87 1.391 1.391 0 0 1-.15-.5L12 6.5Z"/><path fill="#E4B29A" d="M12.62 6.18a.72.72 0 1 1-1.44 0 .72.72 0 0 1 1.44 0ZM16.82 6.18a.72.72 0 1 1-1.44 0 .72.72 0 0 1 1.44 0Z"/><path fill="#EEBFAA" d="M11.75 5.456a.668.668 0 0 1 .03-.006V5.1a1.47 1.47 0 0 1 1.47-1.47h.55a.29.29 0 0 1 .27.19 1.07 1.07 0 0 0 1 .62h.61a.64.64 0 0 1 .426.19c.176.18.152.369.125.577-.01.078-.02.16-.02.243l.022.005-.123 2.075A1.71 1.71 0 0 1 14.42 9h-.82a1.69 1.69 0 0 1-1.72-1.51l-.13-2.034Z"/><path fill="#990838" d="M14 7.51a1.43 1.43 0 0 1-.63-.15c-.06 0-.13 0-.09.1a.87.87 0 0 0 1.45 0c0-.06 0-.14-.09-.1a1.47 1.47 0 0 1-.64.15Z"/><path fill="#D19479" d="m13.84 6.06-.23.73a.25.25 0 0 0 .23.31h.33a.24.24 0 0 0 .22-.31l-.22-.73a.17.17 0 0 0-.33 0Z"/><path fill="#fff" d="M15.05 5.58a.62.62 0 0 1 .6.47.13.13 0 0 1-.068.136.13.13 0 0 1-.052.014h-1a.11.11 0 0 1-.1-.12.62.62 0 0 1 .62-.5ZM13 5.58a.62.62 0 0 0-.6.47.12.12 0 0 0 .12.15h1a.11.11 0 0 0 .1-.12.63.63 0 0 0-.62-.5Z"/><path fill="#7D4533" d="M12.77 5.814a.4.4 0 0 1 .28-.114.4.4 0 0 1 .35.39.43.43 0 0 1 0 .11h-.75a.43.43 0 0 1 0-.11.4.4 0 0 1 .12-.276ZM15.276 5.814A.39.39 0 0 0 15 5.7a.4.4 0 0 0-.37.39v.11h.76a.405.405 0 0 0 0-.11.39.39 0 0 0-.114-.276Z"/><path fill="#000" d="M12.82 6.2c0-.153.024-.313.211-.313.188 0 .24.168.24.313h-.45ZM14.787 6.2c0-.153.024-.313.211-.313.188 0 .239.168.239.313h-.45Z"/><path fill="#fff" d="M12.98 5.94a.07.07 0 1 1-.14 0 .07.07 0 0 1 .14 0ZM14.91 5.94a.07.07 0 1 1-.14 0 .07.07 0 0 1 .14 0Z"/><path fill="#A56953" d="M12.571 5.283a.925.925 0 0 1 .643-.159.125.125 0 1 0 .031-.248 1.175 1.175 0 0 0-.816.201.125.125 0 0 0 .142.206ZM15.58 5.077a1.205 1.205 0 0 0-.814-.201.125.125 0 0 0 .028.248.955.955 0 0 1 .646.16.125.125 0 0 0 .14-.207Z"/></svg>
